!!!COM: Palestrina, Giovanni Perluigi da
!!!OPR: Missa In majoribus duplicibus
!!!OMD: Credo
!!!OTL: Et iterum
**kern	**kern	**kern	**kern
*Ibass	*Itenor	*Icalto	*Icant
!Bassus	!Tenor	!Altus	!Cantus
*clefF4	*clefGv2	*clefG2	*clefG2
*k[]	*k[]	*k[]	*k[]
*?:X	*?:X	*?:X	*?:X
*M4/2	*M4/2	*M4/2	*M4/2
=164	=164	=164	=164
0r	1d	0r	0r
.	[1f	.	.
=165	=165	=165	=165
0r	2f]	1r	0r
.	2e	.	.
.	2d	1a	.
.	2d	.	.
=166	=166	=166	=166
0r	4c	1.cc	1r
.	4d	.	.
.	4e	.	.
.	4f	.	.
.	2g	.	1dd
.	2g	2b	.
=167	=167	=167	=167
0r	1.d	2a	1.ff
.	.	2a	.
.	.	2a	.
.	2c	[2cc	2ee
=168	=168	=168	=168
0r	2.G	4cc]	2dd
.	.	4b	.
.	.	1b	2dd
.	4A	.	.
.	2B	.	2dd
.	2c	[2a	2ee
=169	=169	=169	=169
1r	2.B	4a]	1.dd
.	.	4g	.
.	.	2.g	.
.	8A	.	.
.	8G	.	.
1D	1A	.	.
.	.	8f#	.
.	.	8e	.
.	.	2f#	2a
=170	=170	=170	=170
2.G	2r	0g	1.b
.	2G	.	.
4G	.	.	.
2G	2.d	.	.
2G	.	.	2b
.	4d	.	.
=171	=171	=171	=171
4F	2d	0r	0a
4E	.	.	.
4D	1d	.	.
4E	.	.	.
4F	.	.	.
4G	.	.	.
4A	2c	.	.
4F	.	.	.
=172	=172	=172	=172
2G	2B	0r	0r
2.F	4A	.	.
.	4G	.	.
.	4A	.	.
4E	4B	.	.
4E	[2c	.	.
8D	.	.	.
8C	.	.	.
=173	=173	=173	=173
1D	4c]	1r	0r
.	4B	.	.
.	4B	.	.
.	8A	.	.
.	8B	.	.
1C	2.c	2.e	.
.	4d	4f	.
=174	=174	=174	=174
0r	1e	4g	1b
.	.	4a	.
.	.	4b	.
.	.	4g	.
.	1A	4a	1cc
.	.	4b	.
.	.	2cc	.
=175	=175	=175	=175
0r	1G	2b	1dd
.	.	1b	.
.	4A	.	1cc
.	4B	.	.
.	4c	[2a	.
.	4d	.	.
=176	=176	=176	=176
1r	2e	2a]	1b
.	2e	2g#	.
2r	1A	1a	1a
[2A	.	.	.
=177	=177	=177	=177
2A]	1e	0r	0r
2G	.	.	.
1B-	2d	.	.
.	[2f	.	.
=178	=178	=178	=178
2A	2f]	0r	0r
2G	1e	.	.
2E	.	.	.
2F	2d	.	.
=179	=179	=179	=179
2G	2B	0r	0r
4F	2c	.	.
4E	.	.	.
2F	2d	.	.
[2G	[2e	.	.
=180	=180	=180	=180
4G]	4e]	2r	0r
4F	4d	.	.
4F	2.d	1a	.
8E	.	.	.
8D	.	.	.
1E	.	.	.
.	4c#	.	.
.	4c#	2g	.
.	8B	.	.
.	8c#	.	.
=181	=181	=181	=181
2D	1d	1b-	0r
2G	.	.	.
2F#	1d	2a	.
2G	.	2g	.
=182	=182	=182	=182
1A	1.c	2.e	2r
.	.	.	1ee
.	.	4f#	.
1G	.	2g	.
.	2B	2g	2dd
=183	=183	=183	=183
1D	1d	2a	1ff
.	.	4g	.
.	.	4f	.
2r	2c	[1g	2ee
[2G	4B	.	2dd
.	4A	.	.
=184	=184	=184	=184
4G]	2G	1g]	2b
4F	.	.	.
2E	2g	.	2cc
2D	2f	[1a	2dd
2C#	2e	.	[2ee
=185	=185	=185	=185
1D	1f	0a]	4ee]
.	.	.	4dd
.	.	.	1dd
1A	1e	.	.
.	.	.	2cc#
=186	=186	=186	=186
2D	2r	2r	2dd
1G	1d	1g	1b
2G	2B	2d	2g
=187	=187	=187	=187
2F	2c	2f	2a
2D	2d	2f	2b
1C	1e	1g	2cc
.	.	.	[2cc
=188	=188	=188	=188
1.G	1.d	1.g	2cc]
.	.	.	4b
.	.	.	4a
.	.	.	2b
2E	2c	2g	2ee
=189	=189	=189	=189
2G	2B	2g	2dd
2A	2c	2e	2cc
2.G	1d	1g	2b
.	.	.	[2dd
4A	.	.	.
=190	=190	=190	=190
2B	1r	1g	2dd]
2c	.	.	2ee
2A	2r	2a	2cc
2d	2d	2f	2ff
=191	=191	=191	=191
2c	1e	1g	4ee
.	.	.	4ff
2.c	.	.	4gg
.	.	.	4ff
.	1c	[1a	4ee
4B	.	.	4dd
4A	.	.	4cc
4G	.	.	4b
=192	=192	=192	=192
4F	1f	1a]	4a
4E	.	.	8b
.	.	.	8cc
2D	.	.	1dd
1A	1e	[1a	.
.	.	.	2cc#
=193	=193	=193	=193
2r	1d	2a]	1dd
2B	.	4g	.
.	.	4f	.
1c	2r	1e	2.cc
.	2e	.	.
.	.	.	4b
=194	=194	=194	=194
1d	1f#	0r	1a
2G	1g	.	1r
[2c	.	.	.
=195	=195	=195	=195
4c]	1c	0r	0r
4B	.	.	.
2A	.	.	.
2F	2.f	.	.
2A	.	.	.
.	4f	.	.
=196	=196	=196	=196
2.G	2e	0r	1r
.	1d	.	.
4F	.	.	.
1E	.	.	1ee
.	2c#	.	.
=197	=197	=197	=197
1D	1d	2r	1ff#
.	.	2a	.
1r	2G	2b	1gg
.	2c	[2cc	.
=198	=198	=198	=198
0r	2A	2cc]	1cc
.	2a	1f	.
.	2.d	.	[1ff
.	.	[2b-	.
.	4e	.	.
=199	=199	=199	=199
0r	2f	4b-]	2ff]
.	.	4a	.
.	2f	2a	2ff
.	2c	2g	2ee
.	2d	2f	[2dd
=200	=200	=200	=200
0r	1A	1e	2dd]
.	.	.	2cc#
.	1r	1d	2dd
.	.	.	2dd
*-	*-	*-	*-
!!!CDT: 1525/^1526/-1594/2/2
!!!OCY: Italia
!!!AGN: Mass (Paraphrase)
!!!AST: renaissance, vocal
!!!ASW: Gregorian Mass
!!!PWK: Masses, Book 7
!!!RNB: Cadence finals: E,C,G,D,F
!!!YOR: Le Opere Complete, v. 23, p. 149
!!!YOO: Rome, Italy: Fratelli Scalera
!!!END: 1992//
!!!EED: John Miller
!!!YEC: Copyright 2000, John Miller
!!!YEN: United States of America
!!!YEM: Rights to all derivative electronic formats reserved.
!!!YEM: Refer to licensing agreement for further details.
!!!YEM: This file must be accompanied by the licensing agreement.
!!!YEM: A copy of the licensing agreement may be found at http://www.music-cog.ohio-state.edu/HumdrumDatabases/Palestrina/license.txt
!!!EMD: converted to Humdrum by Bret Aarden
